X:1
T:Evansville, 88.77.77
T:Evansville, 88.77.77
T:Joe Uthup, 2018
T:Public Domain Courtesy of the Cyber Hymnal™
C:Joe Uthup, 2018
Z:Public Domain
Z:Courtesy of the Cyber Hymnal™
%%score 1 2
L:1/8
Q:1/4=128
M:3/4
K:C
V:1 treble 
V:2 bass 
V:1
 [CG]4 [CA]2 | [CG]4 [_B,E]2 | [A,B]4 [CA]2 | [CA]2 [B,G]4 | [CE]4 [CD]2 | [CF]4 [CE]2 | %6
 [B,D]4 [B,F]2 | [DE]4 [CE]2 | [D^G]>[DG] [DG]2 [FA]2 | [EB]4 [^GB]2 | ([Bc-]6 | [Ac]6) | %12
 [Ac]>[Ac] [Ac]2 [Ac]2 | [_Ac]4 [Ac]2 | ([cd-]6 | [Bd]6) | [Gc]4 [Fc]2 | [Bd]4 [Ad]2 | %18
 [ce]4 [EB]2 | [Fc]6 | z2 [FA]2 [FGc]2 | [Ff]4 [Fc]2 | [Ge]6 | [Gd]6 | ([Fc-]6 | [Ec]6) |] %26
V:2
 [C,,E,]4 [F,,D,]2 | [E,,E,]4 [G,,C,]2 | [F,,C,]4 [F,,D,]2 | [F,,D,]2 [G,,F,]4 | %4
 [A,,E,]4 [A,,E,]2 | [A,,F,]4 [G,,E,]2 | [G,,D,]4 [F,,D,]2 | [E,,C,]4 [C,,C,]2 | %8
 [E,B,]>[E,B,] [E,B,]2 [D,A,]2 | [D,^G,]4 [B,,E,]2 | ([A,,E,]6- | [A,,E,]6) | %12
 [F,C]>[F,C] [E,C]2 [D,C]2 | [C,C]4 [_A,,F,]2 | [G,,G,]6- | [G,,G,]6 | [A,C]4 [_A,C]2 | %17
 [G,B,]4 [F,D]2 | [G,C]4 [^G,D]2 | [A,C]6 | G,,,2 [E,C]2 [D,C]2 | [C,A,]4 [D,A,]2 | [G,,G,]6 | %23
 [G,,F,]6 | [C,G,]6- | [C,G,]6 |] %26

